X: 1825
T: Farewell To Whiskey
M:2/4
L:1/16
B:O'Neill's 1825
N:"collected by F. O'Neill"
Z:"Transcribed by Bob Safranek, rjs@gsp.org"
K:G
   (GE) | D2G2  B2G2  | A2E2  E2G2  | D2G2  BAGA  | B2d2 d3d |
          efge  d2g2  | cBAG  A2B2  | D2G2  BAGA  | B2G2 G  :|
|: (Bc) | d2B2 g2(Bc) | dcBA G2(Bc) | d2B2 g2(fg) | agfe d3d |
          efge  d2g2  | cBAG  A2B2  | D2G2  BAGA  | B2G2 G  :|


